X:182
T: ADE ZUR GUTEN NACHT
N: E0768
O: Europa, Mitteleuropa, Deutschland, Sachsen; Franken; Rheinpfalz
R: Abschieds - Lied, Liebe
M: 2/4
L: 1/16
K: G
D2 | G4A2c2 | B2BAG2
A2 | B4c2e2 | d2dcB2
d2 | d2cBc2d2 | B4z2
d2 | B4d4 | e2edc2
B2 | A4c4 | d2dcB2
d2 | d2cBc2d2 | B4z2
d2 | B4d4 | e2edc2
B2 | A4c4 | d2dcB2
d2 | d2cBc2d2 | B4z2

@@@ Tune index: 4495
